htdocs/img/svg/addBook.book_w.svg

<?xml version="1.0" encoding="UTF-8" standalone="no"?>
<!-- Generated by IcoMoon.io -->

<svg
   xmlns:dc="http://purl.org/dc/elements/1.1/"
   xmlns:cc="http://creativecommons.org/ns#"
   xmlns:rdf="http://www.w3.org/1999/02/22-rdf-syntax-ns#"
   xmlns:svg="http://www.w3.org/2000/svg"
   xmlns="http://www.w3.org/2000/svg"
   xmlns:sodipodi="http://sodipodi.sourceforge.net/DTD/sodipodi-0.dtd"
   xmlns:inkscape="http://www.inkscape.org/namespaces/inkscape"
   version="1.1"
   width="32"
   height="32"
   viewBox="0 0 32 32"
   id="svg2"
   inkscape:version="0.91 r13725"
   sodipodi:docname="addBook_w.svg">
  <metadata
     id="metadata12">
    <rdf:RDF>
      <cc:Work
         rdf:about="">
        <dc:format>image/svg+xml</dc:format>
        <dc:type
           rdf:resource="http://purl.org/dc/dcmitype/StillImage" />
        <dc:title />
      </cc:Work>
    </rdf:RDF>
  </metadata>
  <defs
     id="defs10" />
  <sodipodi:namedview
     pagecolor="#ffffff"
     bordercolor="#666666"
     borderopacity="1"
     objecttolerance="10"
     gridtolerance="10"
     guidetolerance="10"
     inkscape:pageopacity="0"
     inkscape:pageshadow="2"
     inkscape:window-width="1680"
     inkscape:window-height="987"
     id="namedview8"
     showgrid="true"
     inkscape:zoom="11.313709"
     inkscape:cx="15.436593"
     inkscape:cy="16.950662"
     inkscape:window-x="1672"
     inkscape:window-y="-8"
     inkscape:window-maximized="1"
     inkscape:current-layer="svg2">
    <inkscape:grid
       type="xygrid"
       id="grid5894"
       empspacing="5"
       visible="true"
       enabled="true"
       snapvisiblegridlinesonly="true"
       spacingx="0.5px"
       spacingy="0.5px" />
  </sodipodi:namedview>
  <rect
     style="fill:#000000;stroke:none"
     id="rect5896"
     width="34.5"
     height="32.5"
     x="-1.8561554"
     y="36.767769"
     rx="4.1501708"
     ry="4.6416383" />
  <g
     id="g3017"
     transform="matrix(1.0683652,0,0,1.2229713,31.927412,-4.3888842)">
    <g
       id="g3007" />
    <path
       id="path3009"
       d="M 29.894,18.237 24.857,6.25 C 24.46,5.45 23.404,4.796 22.51,4.796 H 9.491 C 8.597,4.796 7.541,5.45 7.142,6.25 L 2.107,18.237 c -0.4,0.8 -0.606,2.176 -0.459,3.059 l 1.088,5.898 c 0.147,0.882 0.997,1.603 1.89,1.603 h 22.752 c 0.894,0 1.744,-0.722 1.891,-1.603 l 1.088,-5.898 c 0.142,-0.882 -0.062,-2.259 -0.462,-3.059 z m -2.182,4.201 -0.413,2.403 c -0.125,0.923 -0.957,1.678 -1.846,1.678 H 6.547 c -0.891,0 -1.722,-0.755 -1.846,-1.678 L 4.287,22.438 C 4.164,21.515 4.791,20.76 5.684,20.76 h 20.634 c 0.893,0.002 1.52,0.755 1.395,1.678 z"
       inkscape:connector-curvature="0"
       style="fill:#000000" />
  </g>
  <g
     id="g4" />
  <g
     style="font-size:16px;font-style:normal;font-weight:normal;line-height:125%;letter-spacing:0px;word-spacing:0px;fill:#000000;fill-opacity:1;stroke:none;font-family:HAW Frutiger Next Regular;-inkscape-font-specification:HAW Frutiger Next Regular"
     id="text2989" />
  <rect
     style="fill:#000000;stroke:#ffffff;stroke-width:1.99999988;stroke-miterlimit:4;stroke-opacity:1;stroke-dasharray:none"
     id="rect3037"
     width="29.488052"
     height="29.269617"
     x="1.3191242"
     y="1.5337214"
     ry="4.6416383"
     rx="4.1501708" />
  <g
     style="font-size:16px;font-style:normal;font-weight:normal;line-height:125%;letter-spacing:0px;word-spacing:0px;fill:#ffffff;fill-opacity:1;stroke:none;font-family:HAW Frutiger Next Regular;-inkscape-font-specification:HAW Frutiger Next Regular"
     id="text2993"
     transform="matrix(0.6800609,0,0,0.75866663,5.223852,4.2211101)">
    <g
       id="g5891"
       style="fill:#ffffff">
      <path
         sodipodi:nodetypes="cccccccccccccccccccccccsssccsssscccccccc"
         inkscape:connector-curvature="0"
         d="m 19.521998,18.821033 1e-6,-9.8857647 -2.205686,1.5704617 0,-2.8885637 2.205685,-1.318102 2.940914,0 0,12.5219697 c -0.76512,0.01484 -1.186952,0.05334 -2.940914,-1e-6 z m -6.617054,-4.613357 0,3.954306 -2.9409145,0 0,-3.954306 -4.4113692,0 0,-2.636204 4.4113692,0 0,-3.9543057 2.9409145,0 0,3.9543057 4.411369,10e-7 0,2.636203 z m 15.422701,-10.3168911 0,26.0000001 -21.0000001,0 c -1.657,0 -3,-1.343 -3,-3 0,-1.657 1.343,-3 3,-3 l 19.0000001,0 0,-24.00000001 -20.0000001,0 c -2.2,0 -4,1.79999991 -4,3.99999991 l 0,24.0000001 c 0,2.2 1.8,4 4,4 l 24.0000001,0 0,-28.0000001 z M 8.3276449,25.890785 l 18.0000001,0 0,2 -18.0000001,0 z"
         style="fill:#ffffff"
         id="path3013" />
    </g>
  </g>
</svg>

<?xml version="1.0" encoding="UTF-8" standalone="no"?>
<!-- Generated by IcoMoon.io -->
<svg
   xmlns:ns="http://creativecommons.org/ns#"
   xmlns:dc="http://purl.org/dc/elements/1.1/"
   xmlns:cc="http://web.resource.org/cc/"
   xmlns:rdf="http://www.w3.org/1999/02/22-rdf-syntax-ns#"
   xmlns:svg="http://www.w3.org/2000/svg"
   xmlns="http://www.w3.org/2000/svg"
   xmlns:sodipodi="http://sodipodi.sourceforge.net/DTD/sodipodi-0.dtd"
   xmlns:inkscape="http://www.inkscape.org/namespaces/inkscape"
   version="1.1"
   width="32"
   height="32"
   viewBox="0 0 32 32"
   id="svg2"
   inkscape:version="0.45pre1"
   sodipodi:docname="addBook.book_w.svg"
   sodipodi:version="0.32"
   inkscape:output_extension="org.inkscape.output.svg.inkscape"
   sodipodi:docbase="C:\xampp\htdocs\ELSE-DEV\htdocs\img\svg"
   sodipodi:modified="true">
  <metadata
     id="metadata12">
    <rdf:RDF>
      <ns:Work
         rdf:about="">
        <dc:format>image/svg+xml</dc:format>
        <dc:type
           rdf:resource="http://purl.org/dc/dcmitype/StillImage" />
        <dc:title />
      </ns:Work>
      <cc:Work
         rdf:about="">
        <dc:format>image/svg+xml</dc:format>
        <dc:type
           rdf:resource="http://purl.org/dc/dcmitype/StillImage" />
      </cc:Work>
    </rdf:RDF>
  </metadata>
  <defs
     id="defs10" />
  <sodipodi:namedview
     pagecolor="#ffffff"
     bordercolor="#666666"
     borderopacity="1"
     objecttolerance="10"
     gridtolerance="10"
     guidetolerance="10"
     inkscape:pageopacity="0"
     inkscape:pageshadow="2"
     inkscape:window-width="1680"
     inkscape:window-height="987"
     id="namedview8"
     showgrid="true"
     inkscape:zoom="11.313709"
     inkscape:cx="16.1437"
     inkscape:cy="16.243555"
     inkscape:window-x="1672"
     inkscape:window-y="-8"
     inkscape:window-maximized="1"
     inkscape:current-layer="svg2">
    <inkscape:grid
       type="xygrid"
       id="grid5894"
       empspacing="5"
       visible="true"
       enabled="true"
       snapvisiblegridlinesonly="true"
       spacingx="0.5px"
       spacingy="0.5px" />
  </sodipodi:namedview>
  <g
     id="g4" />
  <g
     style="font-size:16px;font-style:normal;font-weight:normal;line-height:125%;letter-spacing:0px;word-spacing:0px;fill:#000000;fill-opacity:1;stroke:none;font-family:HAW Frutiger Next Regular;-inkscape-font-specification:HAW Frutiger Next Regular"
     id="text2989" />
  <g
     id="g3141"
     transform="translate(-10.8125,0.4687499)">
    <path
       style="fill:#000000;stroke:#ffffff;stroke-width:1.99999988;stroke-miterlimit:4;stroke-dasharray:none;stroke-opacity:1"
       d="M -23.84375,1.71875 C -26.142945,1.71875 -28,3.8035324 -28,6.375 L -28,26.34375 C -28,28.915218 -26.142945,31 -23.84375,31 L 26.65625,30.8125 C 28.955445,30.8125 30.8125,28.727717 30.8125,26.15625 L 30.8125,6.1875 C 30.8125,3.6160324 28.955445,1.53125 26.65625,1.53125 L -23.84375,1.71875 z "
       id="rect3037"
       sodipodi:nodetypes="ccccccccc" />
  </g>
  <g
     style="font-size:16px;font-style:normal;font-weight:normal;line-height:125%;letter-spacing:0px;word-spacing:0px;fill:#ffffff;fill-opacity:1;stroke:none;font-family:HAW Frutiger Next Regular"
     id="g5891"
     transform="matrix(0.6800609,0,0,0.7586666,-6.5829403,4.8055256)">
    <path
       id="path3013"
       style="fill:#ffffff"
       d="M 19.521998,18.821033 L 19.521999,8.9352683 L 17.316313,10.50573 L 17.316313,7.6171663 L 19.521998,6.2990643 L 22.462912,6.2990643 L 22.462912,18.821034 C 21.697792,18.835874 21.27596,18.874374 19.521998,18.821033 L 19.521998,18.821033 z M 12.904944,14.207676 L 12.904944,18.161982 L 9.9640295,18.161982 L 9.9640295,14.207676 L 5.5526603,14.207676 L 5.5526603,11.571472 L 9.9640295,11.571472 L 9.9640295,7.6171663 L 12.904944,7.6171663 L 12.904944,11.571472 L 17.316313,11.571473 L 17.316313,14.207676 L 12.904944,14.207676 z M 28.327645,3.8907849 L 28.327645,29.890785 L 7.3276449,29.890785 C 5.6706449,29.890785 4.3276449,28.547785 4.3276449,26.890785 C 4.3276449,25.233785 5.6706449,23.890785 7.3276449,23.890785 L 26.327645,23.890785 L 26.327645,-0.10921501 L 6.3276449,-0.10921501 C 4.1276449,-0.10921501 2.3276449,1.6907849 2.3276449,3.8907849 L 2.3276449,27.890785 C 2.3276449,30.090785 4.1276449,31.890785 6.3276449,31.890785 L 30.327645,31.890785 L 30.327645,3.8907849 L 28.327645,3.8907849 z M 8.3276449,25.890785 L 26.327645,25.890785 L 26.327645,27.890785 L 8.3276449,27.890785 L 8.3276449,25.890785 z "
       inkscape:connector-curvature="0"
       sodipodi:nodetypes="cccccccccccccccccccccccsssccsssscccccccc" />
  </g>
  <g
     style="font-size:16px;font-style:normal;font-weight:normal;line-height:125%;letter-spacing:0px;word-spacing:0px;fill:#ffffff;fill-opacity:1;stroke:none;font-family:HAW Frutiger Next Regular"
     id="g3148"
     transform="matrix(0.6800609,0,0,0.7586666,-30.58294,4.8055266)">
    <path
       id="path3150"
       style="fill:#ffffff"
       d="M 28.327645,3.8907849 L 28.327645,29.890785 L 7.3276449,29.890785 C 5.6706449,29.890785 4.3276449,28.547785 4.3276449,26.890785 C 4.3276449,25.233785 5.6706449,23.890785 7.3276449,23.890785 L 26.327645,23.890785 L 26.327645,-0.10921501 L 6.3276449,-0.10921501 C 4.1276449,-0.10921501 2.3276449,1.6907849 2.3276449,3.8907849 L 2.3276449,27.890785 C 2.3276449,30.090785 4.1276449,31.890785 6.3276449,31.890785 L 30.327645,31.890785 L 30.327645,3.8907849 L 28.327645,3.8907849 z M 8.3276449,25.890785 L 26.327645,25.890785 L 26.327645,27.890785 L 8.3276449,27.890785 L 8.3276449,25.890785 z "
       inkscape:connector-curvature="0"
       sodipodi:nodetypes="csssccssssccccccccc" />
  </g>
</svg>
